icons/bhi_complex.svg

<svg xmlns="http://www.w3.org/2000/svg" viewBox="0 0 512 512" enable-background="new 0 0 512 512"><path d="M96 128v64h-64l-.2-64h64.2zm-96-32v128h128v-128h-128zM288 128v64h-64l-.2-64h64.2zm-96-32v128h128v-128h-128zM480 128v64h-64l-.2-64h64.2zm-96-32v128h128v-128h-128zM96 320v64h-64l-.2-64h64.2zm-96-32v128h128v-128h-128zM288 320v64h-64l-.2-64h64.2zm-96-32v128h128v-128h-128zM384 288v128h128v-128h-128z"/></svg>

<?xml version="1.0" encoding="utf-8"?>
<!-- Generator: Adobe Illustrator 19.2.0, SVG Export Plug-In . SVG Version: 6.00 Build 0)  -->
<svg version="1.1" id="Layer_1" xmlns="http://www.w3.org/2000/svg" xmlns:xlink="http://www.w3.org/1999/xlink" x="0px" y="0px"
	 viewBox="0 0 512 512" enable-background="new 0 0 512 512" xml:space="preserve">
<g>
	<path d="M96,128v64H32l-0.2-64H96z M0,96v128h128V96H0z"/>
</g>
<g>
	<path d="M288,128v64h-64l-0.2-64H288z M192,96v128h128V96H192z"/>
</g>
<g>
	<path d="M480,128v64h-64l-0.2-64H480z M384,96v128h128V96H384z"/>
</g>
<g>
	<path d="M96,320v64H32l-0.2-64H96z M0,288v128h128V288H0z"/>
</g>
<g>
	<path d="M288,320v64h-64l-0.2-64H288z M192,288v128h128V288H192z"/>
</g>
<g>
	<path d="M384,288v128h128V288H384z"/>
</g>
</svg>
